gama.ui.shared/icons_svg/light/generic/menu.paste.svg

<svg height="25" viewBox="-567.743 -3656.182 25 25" width="25" xmlns="http://www.w3.org/2000/svg"><g fill="none"><path d="m-563.40296-3655.682h16.32c2.12076 0 3.84 1.7194 3.84 3.84v16.32c0 2.121-1.71924 3.84-3.84 3.84h-16.32c-2.12074 0-3.84-1.719-3.84-3.84v-16.32c0-2.1206 1.71926-3.84 3.84-3.84z" fill="#fff"/><path d="m-563.40296-3655.682h16.32c2.12076 0 3.84 1.7194 3.84 3.84v16.32c0 2.121-1.71924 3.84-3.84 3.84h-16.32c-2.12074 0-3.84-1.719-3.84-3.84v-16.32c0-2.1206 1.71926-3.84 3.84-3.84z" stroke="#000" stroke-linecap="round" stroke-linejoin="round" stroke-width=".25"/><path d="m-551.87454-3646.458h-4.63156c-.69897 0-1.2632.564-1.2632 1.263v7.579c0 .699.56423 1.263 1.2632 1.263h5.8947c.69897 0 1.2632-.564 1.2632-1.263v-6.316h-2.1053c-.2358 0-.42104-.185-.42104-.421zm3.36844 2.1303v6.7117c0 1.162-.9432 2.105-2.1053 2.105h-5.8947c-1.1621 0-2.1053-.943-2.1053-2.105v-7.579c0-1.162.9432-2.1053 2.1053-2.1053h5.02735c.10945 0 .22735.0337.32.1263l2.52632 2.5263c.09263.0927.12633.2107.12633.32zm-2.52633-.4463h1.08633l-1.08633-1.0863zm-4.63157 2.5263c-.2358 0-.42107-.1853-.42107-.421 0-.2358.18527-.4213.42107-.4213h4.2105c.2358 0 .42107.1855.42107.4213 0 .2357-.18527.421-.42107.421zm0 1.6842c-.2358 0-.42107-.1852-.42107-.421s.18527-.4211.42107-.4211h4.2105c.2358 0 .42107.1853.42107.4211s-.18527.421-.42107.421zm0 1.6842c-.2358 0-.42107-.1852-.42107-.421 0-.2357.18527-.4211.42107-.4211h3.3684c.2358 0 .42106.1854.42106.4211 0 .2358-.18526.421-.42106.421zm1.6842-10.9473c-.2358 0-.42105-.1854-.42105-.4211 0-.2358.18525-.421.42105-.421 1.1621 0 2.10526.9431 2.10526 2.1052v1.2632c0 .2358-.18526.421-.42106.421s-.42104-.1852-.42104-.421v-1.2632c0-.6989-.56421-1.2631-1.26316-1.2631zm-5.89474-.8421c.23579 0 .42104.1852.42104.421 0 .2357-.18525.4211-.42104.4211-.69896 0-1.26316.5642-1.26316 1.2631v7.579c0 .6989.5642 1.2631 1.26316 1.2631h1.26314c.2358 0 .4211.1854.4211.4211 0 .2358-.1853.421-.4211.421h-1.26314c-1.1621 0-2.10526-.9431-2.10526-2.1052v-7.579c0-1.1621.94316-2.1052 2.10526-2.1052zm2.10524.421c0 .2357-.18524.4211-.421.4211-.2358 0-.4211-.1854-.4211-.4211 0-.6989.5642-1.2633 1.2632-1.2633h.8421c.6989 0 1.26314.5644 1.26314 1.2633 0 .2357-.18524.4211-.42104.4211s-.42107-.1854-.42107-.4211c0-.2358-.18523-.421-.42103-.421h-.8421c-.2358 0-.4211.1852-.4211.421z" fill="#5c76a1"/></g></svg>

<?xml version="1.0" encoding="UTF-8" standalone="no"?>
<!DOCTYPE svg PUBLIC "-//W3C//DTD SVG 1.1//EN" "http://www.w3.org/Graphics/SVG/1.1/DTD/svg11.dtd">
<svg version="1.1" xmlns="http://www.w3.org/2000/svg" xmlns:xl="http://www.w3.org/1999/xlink" xmlns:dc="http://purl.org/dc/elements/1.1/" viewBox="-567.74296 -3656.182 25 25" width="25" height="25">
  <defs/>
  <g id="SOURCES" stroke-dasharray="none" fill="none" stroke="none" fill-opacity="1" stroke-opacity="1">
    <title>SOURCES</title>
    <g id="SOURCES_Calque_2">
      <title>Calque 2</title>
      <g id="Graphic_9248">
        <path d="M -563.40296 -3655.682 L -547.08296 -3655.682 C -544.9622 -3655.682 -543.24296 -3653.9626 -543.24296 -3651.842 L -543.24296 -3635.522 C -543.24296 -3633.401 -544.9622 -3631.682 -547.08296 -3631.682 L -563.40296 -3631.682 C -565.5237 -3631.682 -567.24296 -3633.401 -567.24296 -3635.522 L -567.24296 -3651.842 C -567.24296 -3653.9626 -565.5237 -3655.682 -563.40296 -3655.682 Z" fill="white"/>
        <path d="M -563.40296 -3655.682 L -547.08296 -3655.682 C -544.9622 -3655.682 -543.24296 -3653.9626 -543.24296 -3651.842 L -543.24296 -3635.522 C -543.24296 -3633.401 -544.9622 -3631.682 -547.08296 -3631.682 L -563.40296 -3631.682 C -565.5237 -3631.682 -567.24296 -3633.401 -567.24296 -3635.522 L -567.24296 -3651.842 C -567.24296 -3653.9626 -565.5237 -3655.682 -563.40296 -3655.682 Z" stroke="black" stroke-linecap="round" stroke-linejoin="round" stroke-width=".25"/>
      </g>
      <g id="Group_9280">
        <title>paste</title>
        <g id="Graphic_9281">
          <path d="M -551.87454 -3646.458 L -556.5061 -3646.458 C -557.20507 -3646.458 -557.7693 -3645.894 -557.7693 -3645.195 L -557.7693 -3637.616 C -557.7693 -3636.917 -557.20507 -3636.353 -556.5061 -3636.353 L -550.6114 -3636.353 C -549.91243 -3636.353 -549.3482 -3636.917 -549.3482 -3637.616 L -549.3482 -3643.932 L -551.4535 -3643.932 C -551.6893 -3643.932 -551.87454 -3644.117 -551.87454 -3644.353 Z M -548.5061 -3644.3277 L -548.5061 -3637.616 C -548.5061 -3636.454 -549.4493 -3635.511 -550.6114 -3635.511 L -556.5061 -3635.511 C -557.6682 -3635.511 -558.6114 -3636.454 -558.6114 -3637.616 L -558.6114 -3645.195 C -558.6114 -3646.357 -557.6682 -3647.3003 -556.5061 -3647.3003 L -551.47875 -3647.3003 C -551.3693 -3647.3003 -551.2514 -3647.2666 -551.15875 -3647.174 L -548.63243 -3644.6477 C -548.5398 -3644.555 -548.5061 -3644.437 -548.5061 -3644.3277 Z M -551.03243 -3644.774 L -549.9461 -3644.774 L -551.03243 -3645.8603 Z M -555.664 -3642.2477 C -555.8998 -3642.2477 -556.08507 -3642.433 -556.08507 -3642.6687 C -556.08507 -3642.9045 -555.8998 -3643.09 -555.664 -3643.09 L -551.4535 -3643.09 C -551.2177 -3643.09 -551.03243 -3642.9045 -551.03243 -3642.6687 C -551.03243 -3642.433 -551.2177 -3642.2477 -551.4535 -3642.2477 Z M -555.664 -3640.5635 C -555.8998 -3640.5635 -556.08507 -3640.7487 -556.08507 -3640.9845 C -556.08507 -3641.2203 -555.8998 -3641.4056 -555.664 -3641.4056 L -551.4535 -3641.4056 C -551.2177 -3641.4056 -551.03243 -3641.2203 -551.03243 -3640.9845 C -551.03243 -3640.7487 -551.2177 -3640.5635 -551.4535 -3640.5635 Z M -555.664 -3638.8793 C -555.8998 -3638.8793 -556.08507 -3639.0645 -556.08507 -3639.3003 C -556.08507 -3639.536 -555.8998 -3639.7214 -555.664 -3639.7214 L -552.2956 -3639.7214 C -552.0598 -3639.7214 -551.87454 -3639.536 -551.87454 -3639.3003 C -551.87454 -3639.0645 -552.0598 -3638.8793 -552.2956 -3638.8793 Z M -553.9798 -3649.8266 C -554.2156 -3649.8266 -554.40085 -3650.012 -554.40085 -3650.2477 C -554.40085 -3650.4835 -554.2156 -3650.6687 -553.9798 -3650.6687 C -552.8177 -3650.6687 -551.87454 -3649.7256 -551.87454 -3648.5635 L -551.87454 -3647.3003 C -551.87454 -3647.0645 -552.0598 -3646.8793 -552.2956 -3646.8793 C -552.5314 -3646.8793 -552.71664 -3647.0645 -552.71664 -3647.3003 L -552.71664 -3648.5635 C -552.71664 -3649.2624 -553.28085 -3649.8266 -553.9798 -3649.8266 Z M -559.87454 -3650.6687 C -559.63875 -3650.6687 -559.4535 -3650.4835 -559.4535 -3650.2477 C -559.4535 -3650.012 -559.63875 -3649.8266 -559.87454 -3649.8266 C -560.5735 -3649.8266 -561.1377 -3649.2624 -561.1377 -3648.5635 L -561.1377 -3640.9845 C -561.1377 -3640.2856 -560.5735 -3639.7214 -559.87454 -3639.7214 L -558.6114 -3639.7214 C -558.3756 -3639.7214 -558.1903 -3639.536 -558.1903 -3639.3003 C -558.1903 -3639.0645 -558.3756 -3638.8793 -558.6114 -3638.8793 L -559.87454 -3638.8793 C -561.03664 -3638.8793 -561.9798 -3639.8224 -561.9798 -3640.9845 L -561.9798 -3648.5635 C -561.9798 -3649.7256 -561.03664 -3650.6687 -559.87454 -3650.6687 Z M -557.7693 -3650.2477 C -557.7693 -3650.012 -557.95454 -3649.8266 -558.1903 -3649.8266 C -558.4261 -3649.8266 -558.6114 -3650.012 -558.6114 -3650.2477 C -558.6114 -3650.9466 -558.0472 -3651.511 -557.3482 -3651.511 L -556.5061 -3651.511 C -555.8072 -3651.511 -555.24296 -3650.9466 -555.24296 -3650.2477 C -555.24296 -3650.012 -555.4282 -3649.8266 -555.664 -3649.8266 C -555.8998 -3649.8266 -556.08507 -3650.012 -556.08507 -3650.2477 C -556.08507 -3650.4835 -556.2703 -3650.6687 -556.5061 -3650.6687 L -557.3482 -3650.6687 C -557.584 -3650.6687 -557.7693 -3650.4835 -557.7693 -3650.2477 Z" fill="#5c76a1"/>
        </g>
      </g>
    </g>
  </g>
</svg>
